docs/img/viber.svg

<svg width="24" height="23" viewBox="0 0 24 23" fill="none" xmlns="http://www.w3.org/2000/svg">
<path d="M17.3196 8.91077C17.2294 8.17612 17.0041 7.59928 16.6041 7.08833C16.0847 6.43041 15.421 6.03644 14.4383 5.80273C13.7979 5.64696 13.5391 5.66484 13.3075 5.87694C13.0917 6.07566 13.0496 6.47403 13.2145 6.73201C13.3304 6.91925 13.4642 6.98633 13.8362 7.05954C14.3317 7.15092 14.674 7.26951 14.9855 7.44803C15.6465 7.83068 15.9543 8.42946 15.9873 9.39886C16.0027 9.85402 16.0419 9.99396 16.2005 10.1554C16.4944 10.4505 17.0175 10.3931 17.2394 10.04C17.3208 9.90686 17.3332 9.84893 17.3418 9.53986C17.3475 9.34851 17.3393 9.0637 17.3196 8.91077Z" fill="#BB8C5F"/>
<path d="M19.9088 9.73932C19.7782 7.48858 18.9001 5.67775 17.3285 4.40368C16.443 3.68778 15.3726 3.19551 14.1994 2.95611C13.7696 2.87049 12.9784 2.80109 12.8426 2.84079C12.7145 2.87755 12.5333 3.0166 12.4526 3.14234C12.3672 3.2787 12.3479 3.58316 12.4208 3.75927C12.5384 4.05367 12.7571 4.15768 13.3697 4.21141C14.3141 4.29424 15.2881 4.62686 16.0241 5.11928C16.8644 5.67995 17.5323 6.4468 17.9644 7.34793C18.3377 8.12218 18.5673 9.23797 18.561 10.2371C18.5588 10.5985 18.6145 10.8026 18.7595 10.9518C18.9783 11.1812 19.2973 11.2314 19.5788 11.079C19.8907 10.9145 19.9637 10.6258 19.9088 9.73932Z" fill="#BB8C5F"/>
<path d="M22.7736 18.4066C22.7297 18.278 22.6272 18.0795 22.554 17.9656C22.0928 17.2674 19.6148 15.3233 18.3776 14.6875C17.6712 14.3237 17.1478 14.2025 16.7598 14.3163C16.3425 14.434 16.1229 14.6287 15.4237 15.4997C15.1419 15.8488 14.8528 16.1759 14.7759 16.2273C14.5855 16.3596 14.2122 16.4663 13.9487 16.4663C13.3374 16.4625 12.2283 16.0656 11.3755 15.5438C10.7129 15.1396 9.86381 14.4156 9.21224 13.699C8.44354 12.8574 7.92018 12.115 7.50652 11.2771C6.97215 10.2004 6.83672 9.54252 7.05997 9.06108C7.11488 8.93982 7.1881 8.81123 7.221 8.77075C7.25397 8.73405 7.59805 8.45104 7.97868 8.14233C8.72542 7.54702 8.84619 7.41104 8.98528 7.00311C9.16097 6.4849 9.11341 5.95571 8.84255 5.42286C8.63389 5.01859 8.08851 4.1366 7.69322 3.56699C7.16979 2.81732 5.86672 1.21502 5.6068 0.998129C5.13829 0.615967 4.53806 0.549776 3.87548 0.807079C3.17643 1.07903 1.86601 2.13742 1.30597 2.87611C0.800845 3.54494 0.606912 4.019 0.577599 4.64375C0.551995 5.15823 0.595902 5.37138 0.86677 6.02923C2.98608 11.1889 6.14853 15.3086 10.4933 18.5794C12.7627 20.2882 15.1163 21.5892 17.5577 22.4786C18.9815 22.9967 19.6001 23.0224 20.3285 22.5962C20.636 22.4124 21.3973 21.6296 21.8219 21.06C22.5247 20.1118 22.7846 19.6745 22.8578 19.3254C22.909 19.0865 22.8688 18.6713 22.7736 18.4066Z" fill="#BB8C5F"/>
<path d="M22.5444 10.2554C22.4975 8.98228 22.2837 7.93799 21.8379 6.77369C21.3977 5.62841 20.9522 4.88105 20.1108 3.87023C19.3154 2.92246 18.6975 2.38131 17.7177 1.77892C16.3506 0.939634 14.6868 0.384224 12.8223 0.150641C12.1865 0.0690065 12.0426 0.074837 11.8476 0.205324C11.4695 0.452515 11.4746 1.06907 11.8538 1.31255C11.9793 1.39001 12.0907 1.41822 12.5993 1.48496C13.3801 1.59034 13.8821 1.68965 14.4779 1.8526C16.8139 2.49278 18.6104 3.80134 19.8114 5.74383C20.8164 7.36292 21.2336 8.98213 21.1744 11.0501C21.1538 11.7492 21.1687 11.8723 21.2753 12.0403C21.4795 12.3533 22.0179 12.4153 22.2941 12.1555C22.4659 11.9971 22.4983 11.8783 22.5322 11.2799C22.5484 10.9677 22.5519 10.507 22.5444 10.2554Z" fill="#BB8C5F"/>
</svg>

<svg width="24" height="23" fill="none" xmlns="http://www.w3.org/2000/svg"><path d="M17.32 8.91c-.09-.734-.316-1.31-.716-1.822-.52-.658-1.183-1.052-2.166-1.285-.64-.156-.899-.138-1.13.074-.216.199-.258.597-.094.855.116.187.25.254.622.328.496.09.838.21 1.15.388.66.383.968.981 1.001 1.95.016.456.055.596.214.757a.68.68 0 0 0 1.038-.115c.082-.133.094-.191.103-.5a4.935 4.935 0 0 0-.022-.63Z" fill="#BB8C5F"/><path d="M19.909 9.74c-.13-2.251-1.009-4.062-2.58-5.336a7.264 7.264 0 0 0-3.13-1.448c-.43-.086-1.22-.155-1.356-.115a.833.833 0 0 0-.39.301c-.086.137-.105.441-.032.617.117.295.336.399.949.452.944.083 1.918.416 2.654.908a5.576 5.576 0 0 1 1.94 2.229c.374.774.603 1.89.597 2.89-.002.36.053.565.198.714.22.23.538.28.82.127.312-.165.385-.453.33-1.34Zm2.865 8.667a2.474 2.474 0 0 0-.22-.441c-.461-.699-2.94-2.643-4.176-3.279-.707-.363-1.23-.484-1.618-.37-.418.117-.637.312-1.336 1.183-.282.349-.571.676-.648.727-.19.133-.564.24-.827.24-.612-.005-1.72-.401-2.573-.923-.663-.404-1.512-1.128-2.164-1.845-.768-.842-1.292-1.584-1.705-2.422-.535-1.077-.67-1.734-.447-2.216.055-.121.128-.25.161-.29.033-.037.377-.32.758-.629.746-.595.867-.731 1.006-1.139.176-.518.128-1.047-.142-1.58-.21-.404-.754-1.286-1.15-1.856-.523-.75-1.826-2.352-2.086-2.569C5.138.616 4.538.55 3.875.808c-.699.271-2.009 1.33-2.569 2.068-.505.669-.7 1.143-.728 1.768-.026.514.018.727.289 1.385 2.12 5.16 5.282 9.28 9.626 12.55 2.27 1.71 4.623 3.01 7.065 3.9 1.424.518 2.042.543 2.77.117.308-.184 1.07-.966 1.494-1.536.703-.948.963-1.386 1.036-1.735.051-.238.01-.654-.084-.918Z" fill="#BB8C5F"/><path d="M22.544 10.255a10.274 10.274 0 0 0-.706-3.481c-.44-1.146-.886-1.893-1.727-2.904-.796-.948-1.413-1.489-2.393-2.091C16.35.939 14.687.384 12.822.15c-.635-.082-.78-.076-.974.054-.379.248-.373.864.006 1.108.125.077.237.105.745.172.781.105 1.283.205 1.879.368 2.336.64 4.132 1.948 5.333 3.89 1.005 1.62 1.423 3.24 1.363 5.307-.02.7-.005.822.101.99.205.313.743.375 1.02.116.17-.159.203-.278.237-.876.016-.312.02-.773.012-1.025Z" fill="#BB8C5F"/></svg>
